packages/icons/src/fat-arrow-up.svg

<svg viewBox="0 0 16 18" fill="none" xmlns="http://www.w3.org/2000/svg"><path fill-rule="evenodd" clip-rule="evenodd" d="M8.31126 1.16796C8.11235 0.944015 7.76252 0.944015 7.56361 1.16796L1.12911 8.41213C0.84266 8.73462 1.07159 9.24418 1.50293 9.24418H3.93757C4.21371 9.24418 4.43757 9.46804 4.43757 9.74418V15.9942C4.43757 16.2704 4.66143 16.4942 4.93757 16.4942H10.9376C11.2137 16.4942 11.4376 16.2704 11.4376 15.9942V9.74418C11.4376 9.46804 11.6614 9.24418 11.9376 9.24418H14.3719C14.8033 9.24418 15.0322 8.73462 14.7458 8.41213L8.31126 1.16796L8.68509 0.835911L8.31126 1.16796ZM6.81596 0.503866C7.41269 -0.167956 8.46218 -0.167955 9.05892 0.503866L15.4934 7.74804C16.3528 8.71552 15.666 10.2442 14.3719 10.2442H12.4376V15.9942C12.4376 16.8227 11.766 17.4942 10.9376 17.4942H4.93757C4.10914 17.4942 3.43757 16.8227 3.43757 15.9942V10.2442H1.50293C0.208922 10.2442 -0.477888 8.71552 0.381452 7.74804L6.81596 0.503866Z" fill="#3E7BFA"/></svg>

<svg fill="none" viewBox="0 0 16 18" xmlns="http://www.w3.org/2000/svg"><path clip-rule="evenodd" d="m8.31126 1.16796c-.19891-.223945-.54874-.223945-.74765 0l-6.4345 7.24417c-.28645.32249-.05752.83205.37382.83205h2.43464c.27614 0 .5.22386.5.5v6.25002c0 .2762.22386.5.5.5h6.00003c.2761 0 .5-.2238.5-.5v-6.25002c0-.27614.2238-.5.5-.5h2.4343c.4314 0 .6603-.50956.3739-.83205l-6.43454-7.24417.37383-.332049zm-1.4953-.664094c.59673-.671822 1.64622-.671821 2.24296 0l6.43448 7.244174c.8594.96748.1726 2.49616-1.1215 2.49616h-1.9343v5.75c0 .8285-.6716 1.5-1.5 1.5h-6.00003c-.82843 0-1.5-.6715-1.5-1.5v-5.75h-1.93464c-1.294008 0-1.980818-1.52868-1.121478-2.49616z" fill="#3e7bfa" fill-rule="evenodd"/></svg>
